X: 1
T: Ordu'nun I\,s\ilar\i
%T: Ordu'nun Işıkları
Z: 2018 John Chambers <jc:trillian.mit.edu> from transcription by Yaron Shragai
O: trad. Turkish Black Sea coast
N: used for the int'l folk dance "Ordu"
L: 1/8
M: C|
K: Dphr
"^instr."|:::\
"Dm"defe f2ed | "Gm"c2g2 g2f2 | "Cm"g2fg f2ed | "Dm"c2d2 d2!fine!z2 :::|
"vocal"|:\
"Gm"B2B2 B2(BA) | "Dm"G2A2 A2(GF) | "Bb"F2F2 B2(BA) | "Dm"G2A2 A2z2 :|
"Gm"B2B2 B2(BA) | "Dm"G2A2 A2(GF) | "F"F2F2 G2(GF) | "Bb"E2D2 D2z2 |
"Bb"F2F2 F2(ED) | "Cm"C2G2 G2F2 | "Cm"G2F2 F2(ED) | "Dm"C2D2 "^D.C.al fine"D4 |]
